X: 1
T: Carnaval de Lanz
O: trad. France
M: 2/4
L: 1/16
K: C
ef "A"|\
"C"g2ga gfed | c3e e2e2 | "Dm"d3e f2g2 | "F"a4 "G7"g2ef |\
"C"g2ga gfed | c3e e2e2 | "G7"d3e f2B2 | c4 z2 :|
|: z2 "B"|\
"C"C3E G2c2 | "G7"c2B2 d4 | D3E F2G2 | "C"A2G2 c4 |\
"C"C3E G2c2 | "G7"c2B2 d3c | B2G2 A2B2 | "C"c4 z2 :|
|: z2 "C"|\
"C"g3g g2g2 | "F"a3g f2e2 | "G7"f3f f2a2 | "C"g2e2 c4 |\
"C"g3g g2g2 | "F"a3g f2e2 | "G7"f3f a2g2 | "C"c4 z2 :|[K:F]
|: c2 "D"|\
"F"A2F2 F2GA | "C7"B2G2 G6 | GFGA B2G2 | E2C2 C2c2 |\
"F"A2F2 FGAB | "C7"c6 GA | B2G2 E2G2 | "F"F4 z2 :|
%%text Usually only A, B parts used.  Sometimes all 4 parts are played.


%%sep 5 1 500

